src/static/img/advantages/consult-image.svg

<svg width="100" height="100" viewBox="0 0 100 100" fill="none" xmlns="http://www.w3.org/2000/svg">
<path d="M81.25 90.625H80.7188C19.3125 87.0938 10.5938 35.2813 9.37501 19.4688C9.27681 18.2393 9.42216 17.0026 9.80274 15.8294C10.1833 14.6562 10.7917 13.5697 11.5929 12.632C12.3941 11.6944 13.3725 10.924 14.4719 10.3651C15.5714 9.80622 16.7703 9.46976 18 9.375H35.2188C36.4705 9.37379 37.6938 9.74847 38.7301 10.4505C39.7665 11.1525 40.5681 12.1496 41.0313 13.3125L45.7813 25C46.2386 26.1361 46.3521 27.3815 46.1077 28.5815C45.8632 29.7816 45.2716 30.8834 44.4063 31.75L37.75 38.4688C38.7898 44.3773 41.6193 49.824 45.8559 54.0717C50.0925 58.3195 55.5317 61.1634 61.4375 62.2188L68.2188 55.5C69.0984 54.6442 70.2106 54.0664 71.4165 53.8386C72.6224 53.6107 73.8687 53.7429 75 54.2188L86.7813 58.9375C87.9266 59.4153 88.9038 60.2232 89.5884 61.2583C90.2729 62.2935 90.6338 63.509 90.625 64.75V81.25C90.625 83.7364 89.6373 86.121 87.8791 87.8791C86.121 89.6373 83.7364 90.625 81.25 90.625ZM18.75 15.625C17.9212 15.625 17.1264 15.9542 16.5403 16.5403C15.9543 17.1263 15.625 17.9212 15.625 18.75V19C17.0625 37.5 26.2813 81.25 81.0625 84.375C81.4731 84.4004 81.8846 84.3444 82.2735 84.2104C82.6623 84.0764 83.0209 83.8669 83.3287 83.594C83.6364 83.3211 83.8873 82.9902 84.0668 82.6201C84.2464 82.25 84.3511 81.8481 84.375 81.4375V64.75L72.5938 60.0312L63.625 68.9375L62.125 68.75C34.9375 65.3438 31.25 38.1563 31.25 37.875L31.0625 36.375L39.9375 27.4063L35.25 15.625H18.75Z" fill="#114B63"/>
</svg>

<svg width="100" height="100" fill="none" xmlns="http://www.w3.org/2000/svg"><path d="M81.25 90.625h-.531C19.313 87.094 10.594 35.281 9.375 19.469A9.375 9.375 0 0 1 18 9.375h17.219a6.25 6.25 0 0 1 5.812 3.938L45.781 25a6.25 6.25 0 0 1-1.375 6.75l-6.656 6.719a29.281 29.281 0 0 0 23.688 23.75l6.78-6.719A6.249 6.249 0 0 1 75 54.219l11.781 4.718a6.251 6.251 0 0 1 3.844 5.813v16.5a9.375 9.375 0 0 1-9.375 9.375Zm-62.5-75a3.125 3.125 0 0 0-3.125 3.125V19c1.438 18.5 10.656 62.25 65.438 65.375a3.125 3.125 0 0 0 3.312-2.938V64.75l-11.781-4.719-8.969 8.907-1.5-.188C34.937 65.344 31.25 38.156 31.25 37.875l-.188-1.5 8.875-8.969-4.687-11.781h-16.5Z" fill="#114B63"/></svg>
